bicons/scalable/categories/mood-level-green.svg

<?xml version="1.0" encoding="UTF-8" standalone="no"?>
<!-- Created with Inkscape (http://www.inkscape.org/) -->

<svg
   xmlns:dc="http://purl.org/dc/elements/1.1/"
   xmlns:cc="http://creativecommons.org/ns#"
   xmlns:rdf="http://www.w3.org/1999/02/22-rdf-syntax-ns#"
   xmlns:svg="http://www.w3.org/2000/svg"
   xmlns="http://www.w3.org/2000/svg"
   xmlns:xlink="http://www.w3.org/1999/xlink"
   xmlns:sodipodi="http://sodipodi.sourceforge.net/DTD/sodipodi-0.dtd"
   xmlns:inkscape="http://www.inkscape.org/namespaces/inkscape"
   width="210mm"
   height="297mm"
   viewBox="0 0 744.09448819 1052.3622047"
   id="svg2"
   version="1.1"
   inkscape:version="0.91 r13725"
   sodipodi:docname="mood-level-green.svg"
   inkscape:export-filename="C:\Users\johannes\Documents\Arbeit\RRZE\bi-con\bi-con\scalable\documents\document.png"
   inkscape:export-xdpi="4"
   inkscape:export-ydpi="4">
  <defs
     id="defs4">
    <linearGradient
       inkscape:collect="always"
       id="linearGradient4176">
      <stop
         style="stop-color:#5a6578;stop-opacity:1;"
         offset="0"
         id="stop4178" />
      <stop
         style="stop-color:#9397a2;stop-opacity:1"
         offset="1"
         id="stop4180" />
    </linearGradient>
    <linearGradient
       id="linearGradient2224">
      <stop
         id="stop2226"
         offset="0"
         style="stop-color:#7c7c7c;stop-opacity:1;" />
      <stop
         id="stop2228"
         offset="1"
         style="stop-color:#b8b8b8;stop-opacity:1;" />
    </linearGradient>
    <linearGradient
       id="linearGradient15218">
      <stop
         id="stop15220"
         offset="0"
         style="stop-color:#eeeeef;stop-opacity:1;" />
      <stop
         id="stop2736"
         offset="0.59928656"
         style="stop-color:#d3d7cf;stop-opacity:1;" />
      <stop
         id="stop2738"
         offset="0.82758623"
         style="stop-color:#ffffff;stop-opacity:1;" />
      <stop
         id="stop15222"
         offset="1"
         style="stop-color:#d3d7cf;stop-opacity:1;" />
    </linearGradient>
    <pattern
       y="0"
       x="0"
       height="6"
       width="6"
       patternUnits="userSpaceOnUse"
       id="EMFhbasepattern" />
    <linearGradient
       inkscape:collect="always"
       xlink:href="#linearGradient4176"
       id="linearGradient4182"
       x1="267.44257"
       y1="649.30225"
       x2="517.0686"
       y2="387.07214"
       gradientUnits="userSpaceOnUse"
       gradientTransform="matrix(1.0457517,0,0,1.0411894,-16.732002,-21.656294)" />
  </defs>
  <sodipodi:namedview
     id="base"
     pagecolor="#ffffff"
     bordercolor="#666666"
     borderopacity="1.0"
     inkscape:pageopacity="0.0"
     inkscape:pageshadow="2"
     inkscape:zoom="0.35355339"
     inkscape:cx="-170.23924"
     inkscape:cy="521.7722"
     inkscape:document-units="px"
     inkscape:current-layer="layer1"
     showgrid="false"
     showguides="true"
     inkscape:guide-bbox="true"
     inkscape:window-width="1366"
     inkscape:window-height="721"
     inkscape:window-x="-4"
     inkscape:window-y="-4"
     inkscape:window-maximized="1">
    <sodipodi:guide
       position="591,730.00002"
       orientation="0,1"
       id="guide3338" />
    <sodipodi:guide
       position="189,330.00001"
       orientation="0,1"
       id="guide3340" />
    <sodipodi:guide
       position="190,291.00001"
       orientation="1,0"
       id="guide3344" />
    <inkscape:grid
       type="xygrid"
       id="grid3440" />
    <sodipodi:guide
       position="590,295.00001"
       orientation="1,0"
       id="guide3411" />
  </sodipodi:namedview>
  <metadata
     id="metadata7">
    <rdf:RDF>
      <cc:Work
         rdf:about="">
        <dc:format>image/svg+xml</dc:format>
        <dc:type
           rdf:resource="http://purl.org/dc/dcmitype/StillImage" />
        <dc:title />
      </cc:Work>
    </rdf:RDF>
  </metadata>
  <g
     inkscape:label="Ebene 1"
     inkscape:groupmode="layer"
     id="layer1">
    <rect
       style="fill:none;fill-rule:evenodd;stroke:none;stroke-width:1px;stroke-linecap:butt;stroke-linejoin:miter;stroke-opacity:1"
       id="rect3336"
       width="400"
       height="400"
       x="189.14485"
       y="322.27005"
       inkscape:export-xdpi="4.9499998"
       inkscape:export-ydpi="4.9499998" />
    <g
       id="g4169"
       transform="matrix(0.87493167,0,0,0.87493167,-111.642,156.80927)">
      <g
         transform="translate(183.84776,-101.82338)"
         id="g4157">
        <path
           inkscape:connector-curvature="0"
           style="opacity:1;fill:url(#linearGradient4182);fill-opacity:1;stroke:none;stroke-width:23;stroke-linecap:butt;stroke-linejoin:round;stroke-miterlimit:4;stroke-dasharray:none;stroke-opacity:1"
           d="m 229.94727,322.35938 c -22.16,0 -40,17.83998 -40,40 l 0,320.03124 c 0,22.16 17.84,40 40,40 l 6.76171,0 c -43.24527,-67.21227 -36.26037,-156.96149 20.4375,-216.90234 l -0.16406,-0.16406 8.35156,-8.35156 c 0.0692,-0.0692 0.14555,-0.12622 0.21485,-0.19532 l 3.26367,-3.26172 0.16602,0.16407 c 34.05658,-32.23195 77.80721,-48.57423 121.57226,-48.57422 45.30091,0 90.68885,17.33834 125.2168,51.86719 l 1.04687,1.04687 0.0859,0 3.45899,3.45899 c 0.32957,0.32959 0.60719,0.68994 0.93359,1.02148 l 2.82422,2.82422 -0.125,0.125 c 56.46561,60.01484 62.32123,149.88821 19.17187,216.9414 l 6.83008,0 c 22.16,0 40,-17.84 40,-40 l 0,-320.03124 c 0,-22.16001 -17.84,-40 -40,-40 l -320.04687,0 z m 160.60351,146.36523 c -35.60146,-10e-6 -71.05738,12.39118 -99.74414,37.01953 l 10.12695,10.12695 c 56.14013,-40.25215 124.98999,-37.41545 178.87891,0.35547 l 10.48047,-10.48242 C 461.60621,481.1158 426.15223,468.72461 390.55078,468.72461 Z m -1.93164,40.9668 c -27.85059,0.17933 -55.87589,10.11864 -81.33594,30.9082 l -1.09765,0.89648 -1.66407,2.09375 c -15.58617,19.61778 -25.59744,41.24032 -29.46875,63.4375 l 79.19532,0 c 6.44759,-12.40183 19.32266,-20.74114 33.82812,-20.74414 a 12.50125,12.50125 0 0 0 0.002,0 c 20.96674,5.8e-4 38.23186,17.2657 38.23243,38.23242 10e-4,20.96782 -17.2646,38.2338 -38.23243,38.23438 a 12.50125,12.50125 0 0 1 -0.006,0 c -13.7939,-0.006 -26.18856,-7.55608 -32.91797,-19.07617 l -80.85157,0 c 3.03313,22.61237 12.63308,45.01509 29.39649,65.73633 l 10.5,12.98046 151.19531,0 10.18164,-12.87695 c 39.75183,-50.27041 42.99228,-113.62422 0.1543,-166.08594 l -1.86328,-2.28125 -0.20899,-0.16601 C 447.71588,520.36948 418.26655,509.5005 388.61914,509.69141 Z m 122.86328,17.04101 -10.90625,10.50391 c 37.4665,52.38197 37.44257,115.78753 6.57031,167.79297 l 18.8379,0 c 33.22621,-55.73333 28.95217,-127.73009 -14.50196,-178.29688 z m -242.19922,0.43946 c -20.36097,23.67055 -32.28748,51.95455 -35.82226,81.05078 1.94306,-0.75942 4.03327,-1.19532 6.20703,-1.19532 l 12.16211,0 c 3.45717,-24.38132 12.90978,-48.14018 27.89844,-69.54101 L 269.2832,527.17188 Z m 118.79492,84.11132 c -6.39467,0.002 -11.73675,4.39441 -12.97656,10.66797 a 12.50125,12.50125 0 0 1 -1.02734,3.03125 12.50125,12.50125 0 0 1 1.23242,2.95703 c 1.56461,5.84229 6.72917,9.80755 12.77734,9.81055 7.45374,-0.003 13.22693,-5.77973 13.22657,-13.23438 -2e-4,-7.45619 -5.77622,-13.23221 -13.23243,-13.23242 z m -154.92578,31.07813 c 2.24,21.79106 9.15475,43.2095 20.74024,62.66797 l 18.1289,0 c -11.72957,-19.56239 -18.56746,-40.37349 -20.83789,-61.35547 l -11.51562,0 c -2.28849,0 -4.48737,-0.47537 -6.51563,-1.3125 z"
           id="rect4174" />
        <path
           style="opacity:1;fill:#f7e72b;fill-opacity:1;stroke:none;stroke-width:7.19999981;stroke-linecap:butt;stroke-linejoin:miter;stroke-miterlimit:4;stroke-dasharray:none;stroke-opacity:1"
           d="m 299.81317,531.45247 c 56.52704,-46.1575 127.19737,-42.61489 181.19157,0.28311 l 26.41194,-26.41196 c -64.54288,-64.54456 -169.18935,-64.54461 -233.73225,0 z"
           id="path4204"
           inkscape:connector-curvature="0"
           sodipodi:nodetypes="ccccc" />
        <path
           style="opacity:1;fill:#ff5a35;fill-opacity:1;stroke:none;stroke-width:7.19999981;stroke-linecap:butt;stroke-linejoin:miter;stroke-miterlimit:4;stroke-dasharray:none;stroke-opacity:1"
           d="m 511.00674,509.82958 -26.12889,26.12889 c 46.069,56.4186 42.62627,126.92547 -0.0387,180.87985 l 47.86053,0 c 41.77753,-64.07488 34.55101,-150.76631 -21.69293,-207.00874 z"
           id="path4233"
           inkscape:connector-curvature="0" />
        <path
           inkscape:connector-curvature="0"
           style="opacity:1;fill:#c1d53a;fill-opacity:1;stroke:none;stroke-width:7.19999981;stroke-linecap:butt;stroke-linejoin:miter;stroke-miterlimit:4;stroke-dasharray:none;stroke-opacity:1"
           d="m 268.86328,509.83008 c -56.24396,56.24249 -63.46718,142.93291 -21.68945,207.00781 l 47.34375,0 C 276.08432,694.05256 265.69402,668.9959 262.66797,643.67383 l -23,0 c -9.55013,0 -17.625,-8.08256 -17.625,-17.62695 l 0,-1.39258 c 0,-9.5444 8.07484,-17.62696 17.625,-17.62696 l 23.69726,0 c 3.90738,-24.94706 14.76017,-49.19905 31.91016,-70.78515 l -26.41211,-26.41211 z"
           id="path4235" />
        <path
           style="opacity:1;fill:#000000;fill-opacity:1;stroke:none;stroke-width:23;stroke-linecap:butt;stroke-linejoin:round;stroke-miterlimit:4;stroke-dasharray:none;stroke-opacity:1"
           d="m 234.54297,626.04688 c 0,2.84009 2.2849,5.12695 5.125,5.12695 l 123.56446,0 a 25.733126,25.733126 0 0 0 24.8457,19.07617 25.733126,25.733126 0 0 0 25.73242,-25.73437 25.733126,25.733126 0 0 0 -25.73242,-25.73243 25.733126,25.733126 0 0 0 -25.24024,20.74414 l -123.16992,0 c -2.8401,0 -5.125,2.28687 -5.125,5.12696 l 0,1.39258 z"
           id="path4274"
           inkscape:connector-curvature="0"
           inkscape:transform-center-x="65"
           inkscape:transform-center-y="-1" />
      </g>
    </g>
  </g>
</svg>

<?xml version="1.0" encoding="UTF-8" standalone="no"?>
<!-- Created with Inkscape (http://www.inkscape.org/) -->

<svg
   xmlns:dc="http://purl.org/dc/elements/1.1/"
   xmlns:cc="http://creativecommons.org/ns#"
   xmlns:rdf="http://www.w3.org/1999/02/22-rdf-syntax-ns#"
   xmlns:svg="http://www.w3.org/2000/svg"
   xmlns="http://www.w3.org/2000/svg"
   xmlns:xlink="http://www.w3.org/1999/xlink"
   xmlns:sodipodi="http://sodipodi.sourceforge.net/DTD/sodipodi-0.dtd"
   xmlns:inkscape="http://www.inkscape.org/namespaces/inkscape"
   width="210mm"
   height="297mm"
   viewBox="0 0 744.09448819 1052.3622047"
   id="svg2"
   version="1.1"
   inkscape:version="0.91 r13725"
   sodipodi:docname="mood-level-green.svg"
   inkscape:export-filename="C:\Users\johannes\Documents\Arbeit\RRZE\bi-con\bi-con\scalable\documents\document.png"
   inkscape:export-xdpi="4"
   inkscape:export-ydpi="4">
  <defs
     id="defs4">
    <linearGradient
       inkscape:collect="always"
       id="linearGradient4176">
      <stop
         style="stop-color:#5a6578;stop-opacity:1;"
         offset="0"
         id="stop4178" />
      <stop
         style="stop-color:#9397a2;stop-opacity:1"
         offset="1"
         id="stop4180" />
    </linearGradient>
    <linearGradient
       id="linearGradient2224">
      <stop
         id="stop2226"
         offset="0"
         style="stop-color:#7c7c7c;stop-opacity:1;" />
      <stop
         id="stop2228"
         offset="1"
         style="stop-color:#b8b8b8;stop-opacity:1;" />
    </linearGradient>
    <linearGradient
       id="linearGradient15218">
      <stop
         id="stop15220"
         offset="0"
         style="stop-color:#eeeeef;stop-opacity:1;" />
      <stop
         id="stop2736"
         offset="0.59928656"
         style="stop-color:#d3d7cf;stop-opacity:1;" />
      <stop
         id="stop2738"
         offset="0.82758623"
         style="stop-color:#ffffff;stop-opacity:1;" />
      <stop
         id="stop15222"
         offset="1"
         style="stop-color:#d3d7cf;stop-opacity:1;" />
    </linearGradient>
    <pattern
       y="0"
       x="0"
       height="6"
       width="6"
       patternUnits="userSpaceOnUse"
       id="EMFhbasepattern" />
    <linearGradient
       inkscape:collect="always"
       xlink:href="#linearGradient4176"
       id="linearGradient4182"
       x1="267.44257"
       y1="649.30225"
       x2="517.0686"
       y2="387.07214"
       gradientUnits="userSpaceOnUse"
       gradientTransform="matrix(1.0457517,0,0,1.0411894,-16.732002,-21.656294)" />
  </defs>
  <sodipodi:namedview
     id="base"
     pagecolor="#ffffff"
     bordercolor="#666666"
     borderopacity="1.0"
     inkscape:pageopacity="0.0"
     inkscape:pageshadow="2"
     inkscape:zoom="0.35355339"
     inkscape:cx="25.573737"
     inkscape:cy="823.45906"
     inkscape:document-units="px"
     inkscape:current-layer="layer1"
     showgrid="false"
     showguides="false"
     inkscape:guide-bbox="true"
     inkscape:window-width="1366"
     inkscape:window-height="721"
     inkscape:window-x="-4"
     inkscape:window-y="-4"
     inkscape:window-maximized="1">
    <sodipodi:guide
       position="591,730.00002"
       orientation="0,1"
       id="guide3338" />
    <sodipodi:guide
       position="189,330.00001"
       orientation="0,1"
       id="guide3340" />
    <sodipodi:guide
       position="190,291.00001"
       orientation="1,0"
       id="guide3344" />
    <inkscape:grid
       type="xygrid"
       id="grid3440" />
    <sodipodi:guide
       position="590,295.00001"
       orientation="1,0"
       id="guide3411" />
  </sodipodi:namedview>
  <metadata
     id="metadata7">
    <rdf:RDF>
      <cc:Work
         rdf:about="">
        <dc:format>image/svg+xml</dc:format>
        <dc:type
           rdf:resource="http://purl.org/dc/dcmitype/StillImage" />
        <dc:title />
      </cc:Work>
    </rdf:RDF>
  </metadata>
  <g
     inkscape:label="Ebene 1"
     inkscape:groupmode="layer"
     id="layer1">
    <rect
       style="fill:none;fill-rule:evenodd;stroke:none;stroke-width:1px;stroke-linecap:butt;stroke-linejoin:miter;stroke-opacity:1"
       id="rect3336"
       width="400"
       height="400"
       x="189.14485"
       y="322.27005"
       inkscape:export-xdpi="4.9499998"
       inkscape:export-ydpi="4.9499998" />
    <path
       style="opacity:1;fill:url(#linearGradient4182);fill-opacity:1;stroke:none;stroke-width:23;stroke-linecap:butt;stroke-linejoin:round;stroke-miterlimit:4;stroke-dasharray:none;stroke-opacity:1"
       d="M 229.94727 322.35938 C 207.78727 322.35938 189.94727 340.19936 189.94727 362.35938 L 189.94727 682.39062 C 189.94727 704.55062 207.78727 722.39062 229.94727 722.39062 L 236.70898 722.39062 C 193.46371 655.17835 200.44861 565.42913 257.14648 505.48828 L 256.98242 505.32422 L 265.33398 496.97266 C 265.40318 496.90346 265.47953 496.84644 265.54883 496.77734 L 268.8125 493.51562 L 268.97852 493.67969 C 303.0351 461.44774 346.78573 445.10546 390.55078 445.10547 C 435.85169 445.10547 481.23963 462.44381 515.76758 496.97266 L 516.81445 498.01953 L 516.90039 498.01953 L 520.35938 501.47852 C 520.68895 501.80811 520.96657 502.16846 521.29297 502.5 L 524.11719 505.32422 L 523.99219 505.44922 C 580.4578 565.46406 586.31342 655.33743 543.16406 722.39062 L 549.99414 722.39062 C 572.15414 722.39062 589.99414 704.55062 589.99414 682.39062 L 589.99414 362.35938 C 589.99414 340.19937 572.15414 322.35938 549.99414 322.35938 L 229.94727 322.35938 z M 390.55078 468.72461 C 354.94932 468.7246 319.4934 481.11579 290.80664 505.74414 L 300.93359 515.87109 C 357.07372 475.61894 425.92358 478.45564 479.8125 516.22656 L 490.29297 505.74414 C 461.60621 481.1158 426.15223 468.72461 390.55078 468.72461 z M 388.61914 509.69141 C 360.76855 509.87074 332.74325 519.81005 307.2832 540.59961 L 306.18555 541.49609 L 304.52148 543.58984 C 288.93531 563.20762 278.92404 584.83016 275.05273 607.02734 L 354.24805 607.02734 C 360.69564 594.62551 373.57071 586.2862 388.07617 586.2832 A 12.50125 12.50125 0 0 0 388.07812 586.2832 C 409.04486 586.28378 426.30998 603.5489 426.31055 624.51562 C 426.31156 645.48344 409.04595 662.74942 388.07812 662.75 A 12.50125 12.50125 0 0 1 388.07227 662.75 C 374.27837 662.74385 361.88371 655.19392 355.1543 643.67383 L 274.30273 643.67383 C 277.33586 666.2862 286.93581 688.68892 303.69922 709.41016 L 314.19922 722.39062 L 465.39453 722.39062 L 475.57617 709.51367 C 515.328 659.24326 518.56845 595.88945 475.73047 543.42773 L 473.86719 541.14648 L 473.6582 540.98047 C 447.71588 520.36948 418.26655 509.5005 388.61914 509.69141 z M 511.48242 526.73242 L 500.57617 537.23633 C 538.04267 589.6183 538.01874 653.02386 507.14648 705.0293 L 525.98438 705.0293 C 559.21059 649.29597 554.93655 577.29921 511.48242 526.73242 z M 269.2832 527.17188 C 248.92223 550.84243 236.99572 579.12643 233.46094 608.22266 C 235.404 607.46324 237.49421 607.02734 239.66797 607.02734 L 251.83008 607.02734 C 255.28725 582.64602 264.73986 558.88716 279.72852 537.48633 L 269.2832 527.17188 z M 388.07812 611.2832 C 381.68345 611.28527 376.34137 615.67761 375.10156 621.95117 A 12.50125 12.50125 0 0 1 374.07422 624.98242 A 12.50125 12.50125 0 0 1 375.30664 627.93945 C 376.87125 633.78174 382.03581 637.747 388.08398 637.75 C 395.53772 637.7467 401.31091 631.97027 401.31055 624.51562 C 401.31035 617.05943 395.53433 611.28341 388.07812 611.2832 z M 233.15234 642.36133 C 235.39234 664.15239 242.30709 685.57083 253.89258 705.0293 L 272.02148 705.0293 C 260.29191 685.46691 253.45402 664.65581 251.18359 643.67383 L 239.66797 643.67383 C 237.37948 643.67383 235.1806 643.19846 233.15234 642.36133 z "
       id="rect4174" />
    <path
       style="opacity:1;fill:#f7e72b;fill-opacity:1;stroke:none;stroke-width:7.19999981;stroke-linecap:butt;stroke-linejoin:miter;stroke-miterlimit:4;stroke-dasharray:none;stroke-opacity:1"
       d="m 299.81317,531.45247 c 56.52704,-46.1575 127.19737,-42.61489 181.19157,0.28311 l 26.41194,-26.41196 c -64.54288,-64.54456 -169.18935,-64.54461 -233.73225,0 z"
       id="path4204"
       inkscape:connector-curvature="0"
       sodipodi:nodetypes="ccccc" />
    <path
       style="opacity:1;fill:#ff5a35;fill-opacity:1;stroke:none;stroke-width:7.19999981;stroke-linecap:butt;stroke-linejoin:miter;stroke-miterlimit:4;stroke-dasharray:none;stroke-opacity:1"
       d="m 511.00674,509.82958 -26.12889,26.12889 c 46.069,56.4186 42.62627,126.92547 -0.0387,180.87985 l 47.86053,0 c 41.77753,-64.07488 34.55101,-150.76631 -21.69293,-207.00874 z"
       id="path4233"
       inkscape:connector-curvature="0" />
    <path
       style="opacity:1;fill:#c1d53a;fill-opacity:1;stroke:none;stroke-width:7.19999981;stroke-linecap:butt;stroke-linejoin:miter;stroke-miterlimit:4;stroke-dasharray:none;stroke-opacity:1"
       d="M 268.86328 509.83008 C 212.61932 566.07257 205.3961 652.76299 247.17383 716.83789 L 294.51758 716.83789 C 276.08432 694.05256 265.69402 668.9959 262.66797 643.67383 L 239.66797 643.67383 C 230.11784 643.67383 222.04297 635.59127 222.04297 626.04688 L 222.04297 624.6543 C 222.04297 615.1099 230.11781 607.02734 239.66797 607.02734 L 263.36523 607.02734 C 267.27261 582.08028 278.1254 557.82829 295.27539 536.24219 L 268.86328 509.83008 z "
       id="path4235" />
    <path
       style="opacity:1;fill:#000000;fill-opacity:1;stroke:none;stroke-width:23;stroke-linecap:butt;stroke-linejoin:round;stroke-miterlimit:4;stroke-dasharray:none;stroke-opacity:1"
       d="m 234.54297,626.04688 c 0,2.84009 2.2849,5.12695 5.125,5.12695 l 123.56446,0 a 25.733126,25.733126 0 0 0 24.8457,19.07617 25.733126,25.733126 0 0 0 25.73242,-25.73437 25.733126,25.733126 0 0 0 -25.73242,-25.73243 25.733126,25.733126 0 0 0 -25.24024,20.74414 l -123.16992,0 c -2.8401,0 -5.125,2.28687 -5.125,5.12696 l 0,1.39258 z"
       id="path4274"
       inkscape:connector-curvature="0"
       inkscape:transform-center-x="65"
       inkscape:transform-center-y="-1" />
  </g>
</svg>
